X:1
T:Title
%%score { ( 1 3 4 ) | ( 2 5 ) }
L:1/8
M:9/8
K:B
V:1 treble nm="Grand Piano"
V:3 treble 
V:4 treble 
V:2 bass 
V:5 bass 
V:1
 z3 z3[Q:1/4=110] [GB]2 [GB] | [^^FA]3 [GB]3 G2 G | ^^F3 G3 G2 G | .F6 z3 |[M:3/4] B,3- [B,D]3 | %5
[M:3/8] [B,DB]2 [B,DB] |[M:9/8] [C^^FA]3 [B,GB]3 G2 G | ^^F3 G3 G2 G | F3 FAc edc |[M:3/4] [DB]6 | %10
[M:3/8] [DB]2 [DB] |[M:9/8] =A3 A3 z3 | [^^Fc]3 [GB]3 [GB]2 [GB] | =A3 A3 z3 |[M:3/4] [B,EG]6 | %15
[M:3/8] G2 F |[M:9/8] E3- E2 E EFG | B3 =A3 CGF | B,3- B,2 E DEF |[M:3/4] E6 |] %20
V:2
 z3 z3 [E,E]2 [E,E] | [E,C]3 [E,B,]3 [E,B,E]2 [E,B,E] | [E,A,E]3 [E,B,E]3 [E,B,E]2 [E,B,E] | %3
 [=A,,=A,]3 [A,,A,]3 z =AA,, |[M:3/4] z2 z F,3 |[M:3/8] B,,2 B,, | %6
[M:9/8] E,3 E,3 [E,B,E]2 [E,B,E] | [E,A,E]3 [E,B,E]3 [E,B,E]2 [E,B,E] | %8
 [F,A,E]3 [F,A,E]3 [F,A,E]2 [F,A,E] |[M:3/4] [B,,B,]6 |[M:3/8] [B,,=A,]2 [B,,A,] | %11
[M:9/8] [B,,F,]3 [B,,F,]3 z GB,, | [E,A,]3 [E,B,]3 [E,B,]2 [E,B,] | [B,,B,]3 [B,,F,]3 z GB,, | %14
[M:3/4] E,6 |[M:3/8] B,2 =A, |[M:9/8] G,3- G,2 G, G,=A,B, | =D3 C3 =A,2 A, | %18
 G,3- G,2 [B,,G,B,] F,G,[B,,=A,B,] |[M:3/4] [E,G,B,]6 |] %20
V:3
 x9 | x9 | x9 | C3 z ^EF .[Cc]2 [=A,CF] |[M:3/4] [G,E]4 z2 |[M:3/8] x3 |[M:9/8] x9 | x9 | x9 | %9
[M:3/4] x6 |[M:3/8] x3 |[M:9/8] d3- dcB .[B,D=A]2 [B,DF] | x9 | d3- dcB .[B,D=A]2 [B,DF] | %14
[M:3/4] x6 |[M:3/8] x3 |[M:9/8] x9 | x9 | x9 |[M:3/4] x6 |] %20
V:4
 x9 | x9 | x9 | z3 C3 z3 |[M:3/4] x6 |[M:3/8] x3 |[M:9/8] x9 | x9 | x9 |[M:3/4] x6 |[M:3/8] x3 | %11
[M:9/8] x9 | x9 | x9 |[M:3/4] x6 |[M:3/8] x3 |[M:9/8] x9 | x9 | x9 |[M:3/4] x6 |] %20
V:5
 x9 | x9 | x9 | z3 z3 .[=A,,=A,]3 |[M:3/4] B,,6 |[M:3/8] x3 |[M:9/8] x9 | x9 | x9 |[M:3/4] x6 | %10
[M:3/8] x3 |[M:9/8] z3 z3 .B,,3 | x9 | z3 z3 .B,,3 |[M:3/4] x6 |[M:3/8] x3 |[M:9/8] x9 | x9 | %18
 z3 z3 .[B,,B,]3 |[M:3/4] x6 |] %20

